packages/core/src/svgs/wallet.svg

<svg width="24" height="24" viewBox="0 0 24 24" fill="none" xmlns="http://www.w3.org/2000/svg">
<g clip-path="url(#clip0_31_20586)">
<path d="M0 0H24V24H0V0Z" fill="#F0F3FA"/>
<path d="M17.5716 14.5714L15.0002 11.7856L11.1431 14.9999V20.5714L17.5716 14.5714Z" fill="url(#paint0_linear_31_20586)"/>
<path d="M10.2859 10.7142L9.00021 8.78564L6.64307 10.9285L7.50021 12.4285L9.85735 11.5714L10.2859 10.7142Z" fill="url(#paint1_linear_31_20586)"/>
<path d="M11.5713 8.143V3.42871L14.1427 9.42871L11.5713 8.143Z" fill="url(#paint2_linear_31_20586)"/>
<path d="M14.143 9.42878L11.5716 8.14307L6.42871 15.2145L9.85728 18.8574L14.143 9.42878Z" fill="url(#paint3_linear_31_20586)"/>
<path d="M15 11.7855V9.85693L17.5714 14.5712L15 11.7855Z" fill="url(#paint4_linear_31_20586)"/>
<path d="M9.00021 8.78557L9.85735 5.57129L6.64307 10.9284L9.00021 8.78557Z" fill="url(#paint5_linear_31_20586)"/>
</g>
<defs>
<linearGradient id="paint0_linear_31_20586" x1="17.8716" y1="14.7556" x2="11.5459" y2="15.6428" gradientUnits="userSpaceOnUse">
<stop stop-color="#5C02FF"/>
<stop offset="0.79" stop-color="#5402DB"/>
<stop offset="1" stop-color="#35077D"/>
</linearGradient>
<linearGradient id="paint1_linear_31_20586" x1="9.74164" y1="10.4699" x2="6.72878" y2="11.0614" gradientUnits="userSpaceOnUse">
<stop stop-color="#35028B"/>
<stop offset="0.31" stop-color="#5704E7"/>
<stop offset="1" stop-color="#4101BA"/>
</linearGradient>
<linearGradient id="paint2_linear_31_20586" x1="11.627" y1="3.42871" x2="13.6713" y2="9.72014" gradientUnits="userSpaceOnUse">
<stop stop-color="#7412FD"/>
<stop offset="1" stop-color="#9A39FC"/>
</linearGradient>
<linearGradient id="paint3_linear_31_20586" x1="12.4501" y1="8.32735" x2="9.03871" y2="18.7031" gradientUnits="userSpaceOnUse">
<stop stop-color="#6001FF"/>
<stop offset="1" stop-color="#7E1FFF"/>
</linearGradient>
<linearGradient id="paint4_linear_31_20586" x1="15.1629" y1="10.4698" x2="17.3229" y2="14.4212" gradientUnits="userSpaceOnUse">
<stop stop-color="#7D2BD8"/>
<stop offset="1" stop-color="#A35CEA"/>
</linearGradient>
<linearGradient id="paint5_linear_31_20586" x1="10.0416" y1="5.87557" x2="6.65592" y2="10.7227" gradientUnits="userSpaceOnUse">
<stop stop-color="#7416F0"/>
<stop offset="1" stop-color="#9A43FF"/>
</linearGradient>
<clipPath id="clip0_31_20586">
<rect width="24" height="24" fill="white"/>
</clipPath>
</defs>
</svg>

<svg xmlns="http://www.w3.org/2000/svg" width="24" height="24" fill="none" viewBox="0 0 24 24"><g clip-path="url(#a)"><path fill="#F0F3FA" d="M0 0h24v24H0z"/><path fill="url(#b)" d="M17.572 14.571 15 11.786 11.143 15v5.571z"/><path fill="url(#c)" d="M10.286 10.714 9 8.786l-2.357 2.143.857 1.5 2.357-.858z"/><path fill="url(#d)" d="M11.571 8.143V3.429l2.572 6z"/><path fill="url(#e)" d="m14.143 9.429-2.571-1.286-5.143 7.071 3.428 3.643z"/><path fill="url(#f)" d="M15 11.786v-1.93l2.571 4.715z"/><path fill="url(#g)" d="m9 8.786.857-3.215-3.214 5.357z"/></g><defs><linearGradient id="b" x1="17.872" x2="11.546" y1="14.756" y2="15.643" gradientUnits="userSpaceOnUse"><stop stop-color="#5C02FF"/><stop offset=".79" stop-color="#5402DB"/><stop offset="1" stop-color="#35077D"/></linearGradient><linearGradient id="c" x1="9.742" x2="6.729" y1="10.47" y2="11.061" gradientUnits="userSpaceOnUse"><stop stop-color="#35028B"/><stop offset=".31" stop-color="#5704E7"/><stop offset="1" stop-color="#4101BA"/></linearGradient><linearGradient id="d" x1="11.627" x2="13.671" y1="3.429" y2="9.72" gradientUnits="userSpaceOnUse"><stop stop-color="#7412FD"/><stop offset="1" stop-color="#9A39FC"/></linearGradient><linearGradient id="e" x1="12.45" x2="9.039" y1="8.327" y2="18.703" gradientUnits="userSpaceOnUse"><stop stop-color="#6001FF"/><stop offset="1" stop-color="#7E1FFF"/></linearGradient><linearGradient id="f" x1="15.163" x2="17.323" y1="10.47" y2="14.421" gradientUnits="userSpaceOnUse"><stop stop-color="#7D2BD8"/><stop offset="1" stop-color="#A35CEA"/></linearGradient><linearGradient id="g" x1="10.042" x2="6.656" y1="5.876" y2="10.723" gradientUnits="userSpaceOnUse"><stop stop-color="#7416F0"/><stop offset="1" stop-color="#9A43FF"/></linearGradient><clipPath id="a"><path fill="#fff" d="M0 0h24v24H0z"/></clipPath></defs></svg>
